src/assets/icons/call-shared.svg

<?xml version="1.0" encoding="UTF-8"?>
<svg width="19px" height="16px" viewBox="0 0 19 16" version="1.1" xmlns="http://www.w3.org/2000/svg" xmlns:xlink="http://www.w3.org/1999/xlink">
    <!-- Generator: Sketch 49.2 (51160) - http://www.bohemiancoding.com/sketch -->
    <title>Combined Shape</title>
    <desc>Created with Sketch.</desc>
    <defs></defs>
    <g id="Symbols" stroke="none" stroke-width="1" fill="none" fill-rule="evenodd">
        <g id="calls/row-tlf-compartido" transform="translate(-640.000000, -28.000000)" fill="#56ACFF">
            <g id="Page-1" transform="translate(640.000000, 28.000000)">
                <path d="M16.2998,13.6529 C16.2648,13.6659 12.8318,14.9029 9.4358,14.8109 C6.0548,14.7179 3.0558,13.4909 3.0168,13.4749 C1.4808,12.8729 1.1628,12.4489 1.0928,11.8699 L0.9978,9.4529 C0.9918,9.3019 1.0448,9.1609 1.1488,9.0559 L1.1508,9.0539 C1.2538,8.9509 1.3928,8.8969 1.5428,8.9009 L4.2188,8.9729 C4.4238,8.9799 4.5598,8.9829 4.6358,9.6479 L4.6208,11.6319 C4.6188,11.8269 4.7308,12.0109 4.9078,12.1029 C4.9698,12.1349 6.4758,12.9029 9.3808,12.9819 C12.2478,13.0589 13.3578,12.7279 13.4038,12.7139 C13.6048,12.6509 13.7368,12.4659 13.7318,12.2519 L13.6798,10.1379 C13.6588,9.5279 13.9058,9.5179 14.1058,9.5099 L17.0308,9.3949 C17.1778,9.3889 17.3208,9.4439 17.4308,9.5469 C17.5418,9.6509 17.6048,9.7899 17.6098,9.9369 L17.6778,12.4089 C17.7448,12.9759 17.4378,13.2559 16.2998,13.6529 M18.6718,12.3909 C18.7458,13.0109 18.5388,13.4529 18.2148,13.7759 C17.7818,14.2089 17.1418,14.4329 16.6798,14.5939 C16.5388,14.6449 13.0458,15.9049 9.4638,15.8069 C5.8868,15.7099 2.8168,14.4509 2.6868,14.3969 C1.2068,13.8159 0.2528,13.1929 0.0988,11.8939 L0.0008,9.4369 C-0.0142,9.0169 0.1338,8.6269 0.4208,8.3369 L0.4268,8.3299 C0.7128,8.0439 1.0988,7.8929 1.5148,7.9039 L4.1928,7.9769 C5.4558,8.0109 5.5878,9.2239 5.6308,9.6229 C5.6328,9.6419 5.6338,9.6619 5.6328,9.6809 L5.6208,11.3459 C6.1518,11.5479 7.4068,11.9319 9.3528,11.9849 C11.1728,12.0339 12.2318,11.9129 12.7258,11.8289 L12.6838,10.1139 C12.6488,9.1329 13.1328,8.5489 14.0118,8.5139 L16.9368,8.3989 L16.9378,8.3979 C17.3568,8.3819 17.7778,8.5419 18.0918,8.8389 C18.4068,9.1329 18.5938,9.5439 18.6058,9.9639 L18.6718,12.3909 Z M6.8521,3.7721 C6.6011,4.0231 6.1951,4.0251 5.9421,3.7721 C5.6911,3.5211 5.6981,3.1061 5.9421,2.8621 L8.5671,0.2361 C8.7061,0.0971 8.8921,0.0351 9.0731,0.0491 C9.3001,-0.0469 9.5731,-0.0019 9.7631,0.1881 L12.5111,2.9361 C12.7571,3.1821 12.7611,3.5781 12.5151,3.8241 C12.2711,4.0681 11.8771,4.0701 11.6271,3.8191 L9.7171,1.9091 L9.7171,7.5401 C9.7171,7.8241 9.4781,8.0541 9.2021,8.0541 C8.9171,8.0541 8.6871,7.8211 8.6871,7.5401 L8.6871,1.9371 L6.8521,3.7721 Z" id="Combined-Shape"></path>
            </g>
        </g>
    </g>
</svg>

<svg width="19" height="16" viewBox="0 0 19 16" xmlns="http://www.w3.org/2000/svg"><path d="M16.3 13.653c-.035.013-3.468 1.25-6.864 1.158-3.381-.093-6.38-1.32-6.42-1.336-1.535-.602-1.853-1.026-1.923-1.605L.998 9.453a.527.527 0 0 1 .15-.397l.003-.002a.527.527 0 0 1 .392-.153l2.676.072c.205.007.34.01.417.675l-.015 1.984a.53.53 0 0 0 .287.47c.062.033 1.568.8 4.473.88 2.867.077 3.977-.254 4.023-.268a.467.467 0 0 0 .328-.462l-.052-2.114c-.021-.61.226-.62.426-.628l2.925-.115a.552.552 0 0 1 .4.152.559.559 0 0 1 .179.39l.068 2.472c.067.567-.24.847-1.378 1.244m2.372-1.262c.074.62-.133 1.062-.457 1.385-.433.433-1.073.657-1.535.818-.141.05-3.634 1.31-7.216 1.213-3.577-.097-6.647-1.356-6.777-1.41-1.48-.581-2.434-1.204-2.588-2.503L0 9.437c-.015-.42.133-.81.42-1.1l.006-.007a1.465 1.465 0 0 1 1.088-.426l2.678.073c1.263.034 1.395 1.247 1.438 1.646a.375.375 0 0 1 .002.058l-.012 1.665c.53.202 1.786.586 3.732.639 1.82.049 2.879-.072 3.373-.156l-.042-1.715c-.035-.981.449-1.565 1.328-1.6l2.925-.115v-.001c.42-.016.84.144 1.155.44.315.295.502.706.514 1.126l.066 2.427zM6.852 3.772a.642.642 0 0 1-.91 0 .65.65 0 0 1 0-.91L8.567.236A.643.643 0 0 1 9.073.05a.628.628 0 0 1 .69.14l2.748 2.747a.624.624 0 1 1-.884.883l-1.91-1.91V7.54a.52.52 0 0 1-.515.514.516.516 0 0 1-.515-.514V1.937L6.852 3.772z" fill="#56ACFF" fill-rule="evenodd"/></svg>
